X: 1107
T: Hüseynî Seyir
C: Erol Bingöl
O: Turkey
F: http://compmusic.upf.edu/node/140
N: huseyni--seyir--duyek--1--erol_bingol
N: makam= huseyni
N: form= seyir
N: usul= duyek = 8/4
M: 8/4
L: 1/16
K: C _2/4B ^3/4f  
Q: 1/4=120
%%MIDI tuningsystem comma53
d2 e4 e2 ed cd e4  | cd e4 dc cB BA A4  | \
w:   |   | 
d2 e4 f2 g2 a2 =b2 ag  | 
w:   | 
g3f gf ^2/4fe e8  | fg a4 c'2 =b2 a2 g2 f2  | \
w:   |   | 
e2 e4 d2 _7/8ed cB c4  | 
w:   | 
d2 e4 dc Bc d4 cB  | B2 A2 c2 BA A8  | |


